src/svgs/doctors-bag.svg

<svg xmlns="http://www.w3.org/2000/svg" viewBox="0 0 24 24" width="512" height="512"><path d="M20 7h-4V5a1.993 1.993 0 00-2-2h-4a1.993 1.993 0 00-2 2v2H4a1.985 1.985 0 00-1.99 2L2 19a1.993 1.993 0 002 2h16a1.993 1.993 0 002-2V9a1.993 1.993 0 00-2-2zM10 5h4v2h-4zm6 10h-3v3h-2v-3H8v-2h3v-3h2v3h3z"/></svg>

<svg xmlns="http://www.w3.org/2000/svg" viewBox="0 0 24 24"><path d="M20,7H16V5a1.993,1.993,0,0,0-2-2H10A1.993,1.993,0,0,0,8,5V7H4A1.985,1.985,0,0,0,2.01,9L2,19a1.993,1.993,0,0,0,2,2H20a1.993,1.993,0,0,0,2-2V9A1.993,1.993,0,0,0,20,7ZM10,5h4V7H10Zm6,10H13v3H11V15H8V13h3V10h2v3h3Z"/></svg>
